X:1
T:Thundersnow
C:Sarah Gowan  2011
M:C|
R: reel
L:1/8
K:Am
"Am" A, C2A,2 A, CD|"Am/G" E2G2 EDCB,| "Am/F" A, C2 A,2 A, CD|"E7"E2^G2 AGEG|
"F"AcAG EDCD|"C"EDCD E2 ^F2| "D" G2^F2 EDCD|1"E7" ED C2  A,2E2:|2"E7" ED C2 "Am" A,2A2||
|:"Am" c A2 A3zF|"C"EFED EFEA|"F"c A2 A3zF| "E7"ED C2A,2 A2|
"Dm7" c A2 A3zF|"C"EDCD E2 ^F2| "D" G2^F2 EDCD|1 "E7" ED C2  A,2A2:|2"E7" ED C2  "Am"A,2z2|]
W: © 2011 Sarah Gowan  |  www.sarahgowan.com  |  All rights reserved.
